X: 8
T: Battle Hymn of the Republic v.1
P: piffero primo b0065
O: safd 092
%R: march
F: http://ancients.sudburymuster.org/mus/acn/pdf/fyf03F.pdf
F: http://ancients.sudburymuster.org/mus/col/pdf/hymnsF.pdf
Z: 2019 John Chambers <jc:trillian.mit.edu>
M: 6/8
L: 1/8
K: D
A |\
A2A A2G | F2A d2e | f2f f2e | d3 d2c |\
B2B B2c | d2c d2B | A2B A2F | A3 A2A ||
A2A A2G | F2A d2e | f2f f2e | d3 "^>"d3 |\
"^>"e3 "^>"e3 | "^>"d3 "^>"c3 | d6- | d3 z3 ||\
A3- A2G | F2A d2e | (f6 | d6) |
B3- B2c | d2c d2B | (A6 | F6) ||\
A3- A2G | F2A d2e | (f6 | d3) d3 |\
"^>"e3 "^>"e3 | "^>"d3 "^>"c3 | d6- | d3 z2 :|


